abel/img/sprite/mail-black.svg

<svg width="31" height="23" viewBox="0 0 31 23" fill="none" xmlns="http://www.w3.org/2000/svg">
<path d="M1.82946 1.2265C2.37569 0.849962 3.02332 0.648053 3.68675 0.647461H27.7223C28.3857 0.648053 29.0333 0.849962 29.5796 1.2265L15.7045 8.16403L1.82946 1.2265ZM30.8578 3.02916C30.9501 3.31892 30.998 3.62096 30.9999 3.92503V19.2204C30.9999 20.0896 30.6545 20.9233 30.0399 21.538C29.4252 22.1526 28.5915 22.4979 27.7223 22.4979H3.68675C2.81749 22.4979 1.98382 22.1526 1.36916 21.538C0.754494 20.9233 0.40918 20.0896 0.40918 19.2204V3.92503C0.41108 3.62096 0.458964 3.31892 0.551208 3.02916L15.2129 10.36C15.3654 10.4368 15.5338 10.4769 15.7045 10.4769C15.8753 10.4769 16.0437 10.4368 16.1962 10.36L30.8578 3.02916ZM10.2419 15.9428H4.77928V18.1278H10.2419V15.9428Z" fill="black"/>
</svg>

<svg width="31" height="23" fill="none" xmlns="http://www.w3.org/2000/svg"><path d="M1.83 1.226A3.278 3.278 0 0 1 3.686.647h24.035c.664.001 1.311.203 1.858.58L15.705 8.164 1.829 1.226zM30.857 3.03c.092.29.14.592.142.896V19.22a3.278 3.278 0 0 1-3.278 3.278H3.687A3.278 3.278 0 0 1 .409 19.22V3.925c.002-.304.05-.606.142-.896l14.662 7.331a1.093 1.093 0 0 0 .983 0l14.662-7.33zM10.242 15.943H4.779v2.185h5.463v-2.185z" fill="#000"/></svg>
